;FLAVOR:Marlin
;TIME:2627
;Filament used: 1.65098m
;Layer height: 0.28
;MINX:81.953
;MINY:84.066
;MINZ:0.28
;MAXX:153.044
;MAXY:150.501
;MAXZ:10.64
;Generated with Cura_SteamEngine 4.6.0
M140 S50
M105
M190 S50
M104 S200
M105
M109 S200
M82 ;absolute extrusion mode
; Ender 3 Custom Start G-code
G92 E0 ; Reset Extruder
G28 ; Home all axes
G1 Z2.0 F3000 ; Move Z Axis up little to prevent scratching of Heat Bed
G1 X0.1 Y20 Z0.3 F5000.0 ; Move to start position
G1 X0.1 Y200.0 Z0.3 F1500.0 E15 ; Draw the first line
G1 X0.4 Y200.0 Z0.3 F5000.0 ; Move to side a little
G1 X0.4 Y20 Z0.3 F1500.0 E30 ; Draw the second line
G92 E0 ; Reset Extruder
G1 Z2.0 F3000 ; Move Z Axis up little to prevent scratching of Heat Bed
G1 X5 Y20 Z0.3 F5000.0 ; Move over to prevent blob squish
G92 E0
G92 E0
G1 F2700 E-5
;LAYER_COUNT:38
;LAYER:0
M107
G0 F6000 X134.628 Y84.917 Z0.28
;TYPE:SKIRT
G1 F2700 E0
G1 F1200 X135.25 Y84.959 E0.02903
G1 X135.701 Y85.001 E0.05012
G1 X136.595 Y85.132 E0.09219
G1 X137.108 Y85.245 E0.11665
G1 X138.456 Y85.581 E0.18134
G1 X139.125 Y85.766 E0.21366
G1 X139.984 Y86.045 E0.25572
G1 X140.811 Y86.397 E0.29757
G1 X141.035 Y86.506 E0.30917
G1 X141.648 Y86.815 E0.34113
G1 X142.559 Y87.289 E0.38895
G1 X143.12 Y87.591 E0.41862
G1 X143.116 Y87.598 E0.419
G1 X143.64 Y87.89 E0.44693
G1 X144.387 Y88.397 E0.48897
G1 X144.794 Y88.717 E0.51307
G1 X145.478 Y89.289 E0.55459
G1 X145.855 Y89.62 E0.57795
G1 X146.506 Y90.245 E0.61998
G1 X147.11 Y90.939 E0.66282
G1 X147.23 Y91.09 E0.6718
G1 X147.76 Y91.821 E0.71384
G1 X148.016 Y92.229 E0.73627
G1 X148.342 Y92.78 E0.76608
G1 X150.391 Y96.331 E0.95698
G1 X150.711 Y96.902 E0.98746
G1 X151.283 Y98.101 E1.04932
G1 X151.287 Y98.111 E1.04982
G1 X151.585 Y98.963 E1.09185
G1 X151.806 Y99.837 E1.13383
G1 X151.979 Y100.675 E1.17367
G1 X152.083 Y101.244 E1.20061
G1 X152.199 Y102.179 E1.24448
G1 X152.219 Y102.436 E1.25648
G1 X152.244 Y103.572 E1.30939
G1 X152.222 Y104.196 E1.33846
G1 X152.18 Y105.096 E1.38042
G1 X152.138 Y105.805 E1.41349
G1 X152.045 Y106.703 E1.45553
G1 X151.906 Y107.446 E1.49073
G1 X151.807 Y107.858 E1.51046
G1 X151.475 Y109.088 E1.56978
G1 X151.281 Y109.755 E1.60212
G1 X150.919 Y110.79 E1.65318
G1 X150.877 Y110.892 E1.65832
G1 X150.526 Y111.653 E1.69734
G1 X149.928 Y112.822 E1.75848
G1 X149.69 Y113.263 E1.78182
G1 X149.504 Y113.586 E1.79917
G1 X149.24 Y114.025 E1.82303
G1 X148.546 Y115.036 E1.88013
G1 X147.884 Y115.884 E1.93022
G1 X146.332 Y117.923 E2.04954
G1 X144.856 Y119.977 E2.16732
G1 X143.436 Y122.079 E2.28544
G1 X142.094 Y124.192 E2.40199
G1 X140.779 Y126.397 E2.52154
G1 X139.532 Y128.627 E2.64051
G1 X138.36 Y130.872 E2.75843
G1 X137.245 Y133.161 E2.87699
G1 X136.218 Y135.434 E2.99313
G1 X135.304 Y137.658 E3.1051
G1 X135.22 Y137.84 E3.11443
G1 X134.758 Y138.957 E3.17072
G1 X134.376 Y139.776 E3.2128
G1 X134.095 Y140.28 E3.23967
G1 X133.518 Y141.24 E3.29182
G1 X133.044 Y141.974 E3.33251
G1 X132.804 Y142.327 E3.35238
G1 X132.208 Y143.119 E3.39854
G1 X132.014 Y143.352 E3.41265
G1 X131.519 Y143.903 E3.44714
G1 X130.73 Y144.71 E3.4997
G1 X130.22 Y145.213 E3.53305
G1 X129.277 Y146.036 E3.59133
G1 X129.264 Y146.046 E3.5921
G1 X128.647 Y146.485 E3.62736
G1 X127.925 Y146.958 E3.66755
G1 X127.245 Y147.39 E3.70506
G1 X126.632 Y147.768 E3.7386
G1 X126.627 Y147.76 E3.73904
G1 X126.154 Y148.046 E3.76477
G1 X125.343 Y148.443 E3.80682
G1 X124.821 Y148.654 E3.83304
G1 X123.987 Y148.959 E3.87439
G1 X123.464 Y149.137 E3.90011
G1 X122.597 Y149.39 E3.94217
G1 X121.711 Y149.565 E3.98422
G1 X120.383 Y149.679 E4.04628
G1 X119.19 Y149.701 E4.10184
G1 X115.354 Y149.701 E4.28046
G1 X114.687 Y149.689 E4.31153
G1 X113.785 Y149.633 E4.35361
G1 X112.498 Y149.411 E4.41442
G1 X112.406 Y149.389 E4.41883
G1 X111.501 Y149.128 E4.46269
G1 X110.791 Y148.883 E4.49766
G1 X110.199 Y148.664 E4.52705
G1 X109.367 Y148.314 E4.56908
G1 X108.363 Y147.767 E4.62232
G1 X107.564 Y147.27 E4.66613
G1 X106.894 Y146.84 E4.7032
G1 X106.318 Y146.459 E4.73536
G1 X105.587 Y145.928 E4.77743
G1 X105.114 Y145.527 E4.80631
G1 X104.707 Y145.146 E4.83227
G1 X104.199 Y144.641 E4.86562
G1 X103.824 Y144.258 E4.89058
G1 X103.389 Y143.805 E4.91982
G1 X102.888 Y143.243 E4.95488
G1 X102.373 Y142.577 E4.99408
G1 X102.041 Y142.1 E5.02115
G1 X101.872 Y141.845 E5.03539
G1 X101.236 Y140.842 E5.09069
G1 X100.92 Y140.312 E5.11943
G1 X100.36 Y139.231 E5.17611
G1 X100.236 Y138.952 E5.19033
G1 X100.104 Y138.64 E5.20611
G1 X99.179 Y136.356 E5.32085
G1 X98.161 Y134.041 E5.43861
G1 X97.072 Y131.737 E5.55727
G1 X95.929 Y129.487 E5.67478
G1 X94.705 Y127.237 E5.79405
G1 X93.436 Y125.055 E5.91159
G1 X92.078 Y122.864 E6.03162
G1 X90.712 Y120.792 E6.14718
G1 X89.227 Y118.676 E6.26755
G1 X87.705 Y116.63 E6.38629
G1 X86.477 Y115.061 E6.47907
G1 X86.17 Y114.65 E6.50296
G1 X85.534 Y113.655 E6.55794
G1 X85.111 Y112.9 E6.59824
G1 X84.96 Y112.62 E6.61305
G1 X84.674 Y112.07 E6.64192
G1 X84.366 Y111.436 E6.67474
G1 X84.243 Y111.168 E6.68847
G1 X83.903 Y110.331 E6.73054
G1 X83.709 Y109.729 E6.75999
G1 X83.339 Y108.426 E6.82306
G1 X83.173 Y107.788 E6.85376
G1 X82.984 Y106.905 E6.89581
G1 X82.873 Y105.992 E6.93863
G1 X82.856 Y105.75 E6.94993
G1 X82.816 Y105.04 E6.98304
G1 X82.774 Y104.104 E7.02667
G1 X82.753 Y103.427 E7.05821
G1 X82.765 Y102.524 E7.10026
G1 X82.855 Y101.634 E7.14191
G1 X82.907 Y101.291 E7.15807
G1 X83.037 Y100.554 E7.19291
G1 X83.147 Y100.002 E7.21912
G1 X83.362 Y99.125 E7.26117
G1 X83.537 Y98.583 E7.28769
G1 X83.868 Y97.743 E7.32973
G1 X84.288 Y96.907 E7.3733
G1 X84.691 Y96.191 E7.41155
G1 X85.257 Y95.207 E7.46441
G1 X85.276 Y95.172 E7.46627
G1 X86.674 Y92.751 E7.59644
G1 X87.035 Y92.144 E7.62933
G1 X87.531 Y91.389 E7.67139
G1 X88.091 Y90.681 E7.71343
G1 X88.712 Y90.025 E7.75549
G1 X89.064 Y89.7 E7.7778
G1 X89.647 Y89.187 E7.81396
G1 X89.906 Y88.967 E7.82978
G1 X90.21 Y88.717 E7.84811
G1 X90.932 Y88.175 E7.89015
G1 X91.808 Y87.639 E7.93797
G1 X92.908 Y87.042 E7.99624
G1 X93.423 Y86.776 E8.02323
G1 X94.019 Y86.478 E8.05426
G1 X95.15 Y85.995 E8.11153
G1 X95.164 Y85.99 E8.11222
G1 X95.909 Y85.756 E8.14858
G1 X96.72 Y85.536 E8.18771
G1 X97.229 Y85.406 E8.21217
G1 X97.861 Y85.251 E8.24247
G1 X98.747 Y85.075 E8.28453
G1 X99.204 Y85.015 E8.306
G1 X99.428 Y84.991 E8.31649
G1 X99.779 Y84.96 E8.33289
G1 X100.475 Y84.914 E8.36537
G1 X101.336 Y84.88 E8.4055
G1 X102.013 Y84.868 E8.43703
G1 X102.911 Y84.891 E8.47885
G1 X103.138 Y84.907 E8.48945
G1 X103.918 Y84.993 E8.52599
G1 X104.253 Y85.043 E8.54176
G1 X106.832 Y85.389 E8.66293
G1 X109.378 Y85.657 E8.78214
G1 X111.898 Y85.85 E8.89982
G1 X114.441 Y85.973 E9.01837
G1 X116.968 Y86.023 E9.13606
G1 X119.542 Y86.002 E9.25592
G1 X122.061 Y85.91 E9.3733
G1 X124.573 Y85.746 E9.49051
G1 X127.131 Y85.508 E9.61014
G1 X129.69 Y85.196 E9.73018
G1 X131.047 Y85 E9.79402
G1 X131.653 Y84.927 E9.82245
G1 X132.943 Y84.866 E9.88258
G1 X133.67 Y84.878 E9.91644
G1 X134.628 Y84.917 E9.96108
G0 F6000 X134.958 Y84.536
G1 F1200 X135.741 Y84.603 E9.99768
G1 X136.652 Y84.736 E10.04055
G1 X137.204 Y84.856 E10.06685
G1 X138.562 Y85.195 E10.13202
G1 X139.231 Y85.38 E10.16434
G1 X140.107 Y85.664 E10.20722
G1 X140.981 Y86.035 E10.25144
G1 X141.215 Y86.149 E10.26356
G1 X141.832 Y86.46 E10.29573
G1 X142.748 Y86.936 E10.3438
G1 X143.309 Y87.238 E10.37347
G1 X143.305 Y87.246 E10.37388
G1 X143.834 Y87.54 E10.40206
G1 X144.597 Y88.055 E10.44493
G1 X145.049 Y88.409 E10.47166
G1 X145.742 Y88.988 E10.51371
G1 X146.119 Y89.319 E10.53707
G1 X146.783 Y89.956 E10.57992
G1 X147.424 Y90.69 E10.62529
G1 X147.544 Y90.841 E10.63427
G1 X148.085 Y91.586 E10.67715
G1 X148.36 Y92.025 E10.70127
G1 X148.688 Y92.58 E10.73129
G1 X150.74 Y96.136 E10.92246
G1 X151.06 Y96.707 E10.95294
G1 X151.655 Y97.952 E11.01719
G1 X151.659 Y97.962 E11.01769
G1 X151.963 Y98.831 E11.06056
G1 X152.198 Y99.756 E11.105
G1 X152.371 Y100.594 E11.14485
G1 X152.477 Y101.176 E11.17239
G1 X152.598 Y102.148 E11.218
G1 X152.618 Y102.405 E11.23
G1 X152.644 Y103.586 E11.28501
G1 X152.622 Y104.214 E11.31427
G1 X152.579 Y105.12 E11.3565
G1 X152.537 Y105.829 E11.38958
G1 X152.443 Y106.745 E11.43245
G1 X152.297 Y107.531 E11.46968
G1 X152.194 Y107.96 E11.49022
G1 X151.859 Y109.199 E11.54999
G1 X151.665 Y109.866 E11.58233
G1 X151.289 Y110.942 E11.63541
G1 X151.247 Y111.044 E11.64054
G1 X150.882 Y111.835 E11.68111
G1 X150.125 Y113.304 E11.75806
G1 X150.041 Y113.456 E11.76615
G1 X149.847 Y113.792 E11.78421
G1 X149.583 Y114.231 E11.80806
G1 X148.862 Y115.281 E11.86737
G1 X148.198 Y116.131 E11.9176
G1 X146.659 Y118.152 E12.03588
G1 X145.197 Y120.188 E12.1526
G1 X143.772 Y122.296 E12.27108
G1 X142.406 Y124.447 E12.38973
G1 X141.137 Y126.575 E12.5051
G1 X139.883 Y128.818 E12.62476
G1 X138.73 Y131.025 E12.7407
G1 X137.598 Y133.351 E12.86116
G1 X136.59 Y135.582 E12.97515
G1 X135.674 Y137.81 E13.08732
G1 X135.592 Y137.987 E13.09641
G1 X135.128 Y139.11 E13.15299
G1 X134.739 Y139.945 E13.19588
G1 X134.439 Y140.484 E13.2246
G1 X134.03 Y141.171 E13.26183
G1 X133.855 Y141.455 E13.27737
G1 X133.375 Y142.199 E13.31859
G1 X133.135 Y142.552 E13.33847
G1 X132.515 Y143.375 E13.38645
G1 X132.321 Y143.608 E13.40057
G1 X131.807 Y144.181 E13.43641
G1 X131.011 Y144.995 E13.48943
G1 X130.501 Y145.498 E13.52278
G1 X129.521 Y146.353 E13.58334
G1 X129.508 Y146.363 E13.5841
G1 X128.867 Y146.819 E13.62073
G1 X128.14 Y147.295 E13.6612
G1 X127.455 Y147.731 E13.699
G1 X126.842 Y148.109 E13.73254
G1 X126.837 Y148.101 E13.73298
G1 X126.361 Y148.389 E13.75888
G1 X125.535 Y148.795 E13.80174
G1 X124.96 Y149.029 E13.83065
G1 X124.116 Y149.338 E13.8725
G1 X123.593 Y149.516 E13.89822
G1 X122.71 Y149.774 E13.94106
G1 X121.807 Y149.955 E13.98394
G1 X120.892 Y150.057 E14.02681
G1 X120.391 Y150.079 E14.05016
G1 X119.19 Y150.101 E14.1061
G1 X115.346 Y150.101 E14.28509
G1 X114.679 Y150.089 E14.31615
G1 X113.76 Y150.033 E14.35903
G1 X112.405 Y149.8 E14.42305
G1 X112.313 Y149.778 E14.42745
G1 X111.372 Y149.507 E14.47305
G1 X110.652 Y149.259 E14.50851
G1 X110.06 Y149.04 E14.5379
G1 X109.212 Y148.683 E14.58074
G1 X108.152 Y148.107 E14.63692
G1 X107.349 Y147.607 E14.68096
G1 X106.673 Y147.174 E14.71835
G1 X106.097 Y146.793 E14.7505
G1 X105.352 Y146.252 E14.79337
G1 X104.849 Y145.827 E14.82404
G1 X104.425 Y145.43 E14.85108
G1 X103.913 Y144.921 E14.8847
G1 X103.535 Y144.535 E14.90986
G1 X103.1 Y144.082 E14.9391
G1 X102.582 Y143.501 E14.97535
G1 X102.046 Y142.808 E15.01614
G1 X101.711 Y142.326 E15.04347
G1 X101.535 Y142.06 E15.05833
G1 X100.892 Y141.046 E15.11424
G1 X100.576 Y140.516 E15.14297
G1 X99.995 Y139.393 E15.20184
G1 X99.871 Y139.114 E15.21606
G1 X99.733 Y138.79 E15.23246
G1 X98.817 Y136.53 E15.34601
G1 X97.791 Y134.194 E15.46481
G1 X96.711 Y131.91 E15.58246
G1 X95.564 Y129.653 E15.70034
G1 X94.366 Y127.449 E15.81715
G1 X93.084 Y125.245 E15.93588
G1 X91.758 Y123.106 E16.05306
G1 X90.356 Y120.98 E16.17165
G1 X88.924 Y118.939 E16.28774
G1 X87.389 Y116.876 E16.40748
G1 X86.162 Y115.308 E16.50019
G1 X85.846 Y114.884 E16.52481
G1 X85.185 Y113.85 E16.58196
G1 X84.762 Y113.095 E16.62226
G1 X84.606 Y112.804 E16.63763
G1 X84.171 Y111.958 E16.68193
G1 X83.879 Y111.334 E16.71401
G1 X83.532 Y110.482 E16.75684
G1 X83.325 Y109.839 E16.7883
G1 X82.952 Y108.527 E16.85181
G1 X82.786 Y107.889 E16.88251
G1 X82.593 Y106.989 E16.92537
G1 X82.474 Y106.025 E16.9706
G1 X82.457 Y105.773 E16.98236
G1 X82.416 Y105.059 E17.01566
G1 X82.374 Y104.117 E17.05957
G1 X82.353 Y103.44 E17.0911
G1 X82.365 Y102.519 E17.13399
G1 X82.458 Y101.58 E17.17793
G1 X82.513 Y101.224 E17.19471
G1 X82.644 Y100.475 E17.23011
G1 X82.754 Y99.923 E17.25632
G1 X82.973 Y99.029 E17.29918
G1 X83.159 Y98.453 E17.32736
G1 X83.496 Y97.596 E17.37024
G1 X83.94 Y96.711 E17.41635
G1 X84.344 Y95.991 E17.45479
G1 X84.916 Y94.997 E17.50819
G1 X84.929 Y94.972 E17.50951
G1 X86.33 Y92.547 E17.63991
G1 X86.691 Y91.94 E17.6728
G1 X87.196 Y91.17 E17.71568
G1 X87.765 Y90.446 E17.75855
G1 X88.395 Y89.775 E17.80141
G1 X88.8 Y89.4 E17.82711
G1 X89.383 Y88.887 E17.86327
G1 X89.652 Y88.658 E17.87972
G1 X89.956 Y88.408 E17.89805
G1 X90.692 Y87.855 E17.94092
G1 X91.617 Y87.287 E17.99146
G1 X92.724 Y86.687 E18.05009
G1 X93.245 Y86.418 E18.0774
G1 X93.841 Y86.12 E18.10842
G1 X95.016 Y85.619 E18.1679
G1 X95.03 Y85.614 E18.16859
G1 X95.803 Y85.37 E18.20634
G1 X96.621 Y85.148 E18.24581
G1 X97.134 Y85.017 E18.27046
G1 X97.766 Y84.862 E18.30076
G1 X98.669 Y84.682 E18.34364
G1 X99.162 Y84.617 E18.36679
G1 X99.386 Y84.593 E18.37728
G1 X99.75 Y84.561 E18.3943
G1 X100.458 Y84.514 E18.42734
G1 X101.329 Y84.48 E18.46792
G1 X102.006 Y84.468 E18.49945
G1 X102.939 Y84.492 E18.54291
G1 X103.166 Y84.508 E18.55351
G1 X103.977 Y84.597 E18.5915
G1 X104.298 Y84.645 E18.60661
G1 X106.891 Y84.992 E18.72843
G1 X109.415 Y85.258 E18.84661
G1 X111.914 Y85.449 E18.96331
G1 X114.468 Y85.573 E19.08238
G1 X116.973 Y85.623 E19.19904
G1 X119.523 Y85.602 E19.31779
G1 X122.021 Y85.511 E19.43418
G1 X124.581 Y85.344 E19.55364
G1 X127.082 Y85.111 E19.6706
G1 X129.629 Y84.8 E19.79008
G1 X130.99 Y84.604 E19.85411
G1 X131.338 Y84.559 E19.87045
G1 X131.609 Y84.529 E19.88314
G1 X132.95 Y84.466 E19.94565
G1 X133.677 Y84.478 E19.97951
G1 X134.958 Y84.536 E20.03922
G0 F6000 X134.988 Y84.137
G1 F1200 X135.782 Y84.205 E20.07633
G1 X136.71 Y84.34 E20.11999
G1 X137.299 Y84.468 E20.14806
G1 X138.669 Y84.81 E20.21381
G1 X139.338 Y84.995 E20.24613
G1 X140.23 Y85.283 E20.28978
G1 X141.152 Y85.673 E20.33639
G1 X141.394 Y85.791 E20.34893
G1 X142.016 Y86.105 E20.38137
G1 X142.938 Y86.584 E20.42975
G1 X143.499 Y86.886 E20.45942
G1 X143.495 Y86.894 E20.45984
G1 X144.029 Y87.19 E20.48827
G1 X144.807 Y87.713 E20.53192
G1 X145.304 Y88.101 E20.56128
G1 X146.006 Y88.688 E20.60389
G1 X146.383 Y89.019 E20.62725
G1 X147.06 Y89.667 E20.67089
G1 X147.737 Y90.441 E20.71877
G1 X147.857 Y90.592 E20.72775
G1 X148.408 Y91.351 E20.77142
G1 X148.704 Y91.821 E20.79729
G1 X149.035 Y92.38 E20.82754
G1 X151.089 Y95.94 E21.01892
G1 X151.409 Y96.511 E21.0494
G1 X151.832 Y97.348 E21.09307
G1 X152.026 Y97.804 E21.11614
G1 X152.03 Y97.814 E21.11664
G1 X152.341 Y98.699 E21.16032
G1 X152.59 Y99.675 E21.20722
G1 X152.763 Y100.513 E21.24707
G1 X152.871 Y101.109 E21.27527
G1 X152.997 Y102.117 E21.32257
G1 X153.017 Y102.374 E21.33458
G1 X153.044 Y103.599 E21.39163
G1 X153.021 Y104.232 E21.42113
G1 X152.979 Y105.143 E21.46359
G1 X152.937 Y105.852 E21.49666
G1 X152.841 Y106.785 E21.54034
G1 X152.688 Y107.617 E21.57973
G1 X152.581 Y108.062 E21.60104
G1 X152.243 Y109.311 E21.66129
G1 X152.049 Y109.978 E21.69364
G1 X151.658 Y111.094 E21.7487
G1 X151.616 Y111.196 E21.75383
G1 X151.238 Y112.018 E21.79596
G1 X150.64 Y113.187 E21.85711
G1 X150.391 Y113.65 E21.88159
G1 X150.19 Y113.998 E21.9003
G1 X149.926 Y114.437 E21.92415
G1 X149.177 Y115.527 E21.98573
G1 X148.513 Y116.377 E22.03596
G1 X146.999 Y118.365 E22.15232
G1 X145.509 Y120.44 E22.27127
G1 X144.114 Y122.504 E22.38727
G1 X142.755 Y124.645 E22.50535
G1 X141.472 Y126.796 E22.62197
G1 X140.238 Y129.002 E22.73967
G1 X139.073 Y131.235 E22.85695
G1 X137.978 Y133.484 E22.97343
G1 X136.951 Y135.756 E23.08953
G1 X136.044 Y137.962 E23.20059
G1 X135.954 Y138.157 E23.21059
G1 X135.497 Y139.263 E23.26632
G1 X135.102 Y140.114 E23.31
G1 X134.783 Y140.689 E23.34062
G1 X134.374 Y141.376 E23.37785
G1 X134.192 Y141.671 E23.39399
G1 X133.706 Y142.424 E23.43572
G1 X133.466 Y142.777 E23.4556
G1 X132.822 Y143.63 E23.50537
G1 X132.628 Y143.863 E23.51948
G1 X132.095 Y144.458 E23.55668
G1 X131.292 Y145.28 E23.61019
G1 X130.782 Y145.783 E23.64354
G1 X129.765 Y146.67 E23.70638
G1 X129.752 Y146.68 E23.70714
G1 X129.086 Y147.154 E23.74521
G1 X128.355 Y147.633 E23.7859
G1 X127.665 Y148.071 E23.82396
G1 X127.052 Y148.449 E23.85749
G1 X127.047 Y148.441 E23.85793
G1 X126.569 Y148.731 E23.88397
G1 X125.729 Y149.147 E23.92761
G1 X125.1 Y149.404 E23.95925
G1 X124.532 Y149.615 E23.98747
G1 X124.245 Y149.716 E24.00164
G1 X123.722 Y149.894 E24.02736
G1 X122.822 Y150.158 E24.07103
G1 X121.903 Y150.345 E24.1147
G1 X120.971 Y150.452 E24.15839
G1 X120.399 Y150.479 E24.18505
G1 X119.19 Y150.501 E24.24136
G1 X115.339 Y150.501 E24.42067
G1 X114.672 Y150.489 E24.45174
G1 X113.736 Y150.432 E24.4954
G1 X112.808 Y150.296 E24.53908
G1 X112.22 Y150.167 E24.56711
G1 X111.244 Y149.886 E24.6144
